src/icons/categories/console.svg

<svg width="37" height="22" viewBox="0 0 37 22" fill="none" xmlns="http://www.w3.org/2000/svg">
<path d="M15.7238 14.1048C13.6835 16.4778 9.82463 21.5121 6.01011 21.5343C1.86294 21.5564 0.465759 19.25 0.465759 10.8226C0.465759 2.39517 7.14116 1.30847 7.14116 1.30847H17.9194H18.1855H28.9637C28.9637 1.30847 35.6613 2.37299 35.6613 10.8226C35.6613 19.2722 34.2641 21.5564 30.117 21.5343C26.4133 21.5121 22.621 16.6774 20.5585 14.2823C19.1835 12.7298 16.8992 12.7298 15.7238 14.1048Z" fill="#F0592C"/>
<path d="M18.7399 12.6855C18.7399 12.6855 21.0242 12.752 23.4637 15.1916C25.8811 17.6089 29.7177 20.2258 32.0686 18.0746C33.9758 16.3448 33.3105 1.79639 28.9194 1.79639C24.5282 1.79639 32.0686 -0.620946 34.6633 5.89921C37.2581 12.4194 34.4637 19.8045 33.9536 20.1149C33.4436 20.4254 29.1411 23.3085 25.5484 19.5383C21.9778 15.746 18.7399 12.6855 18.7399 12.6855Z" fill="#DB4C22"/>
<path d="M17.4758 12.6855C17.4758 12.6855 15.1915 12.752 12.752 15.1915C10.3347 17.6089 6.49798 20.2258 4.14717 18.0746C2.23992 16.3448 2.90524 1.79639 7.29637 1.79639C11.6875 1.79639 4.14717 -0.620946 1.55242 5.89921C-1.04234 12.3972 1.75201 19.7823 2.26209 20.0928C2.77217 20.4032 7.07459 23.2863 10.6673 19.5161C14.2379 15.746 17.4758 12.6855 17.4758 12.6855Z" fill="#FF8763"/>
<path d="M29.7178 6.56453C29.7178 7.71776 28.7863 8.64921 27.6331 8.64921C26.4799 8.64921 25.5484 7.71776 25.5484 6.56453C25.5484 5.41131 26.4799 4.47986 27.6331 4.47986C28.7863 4.50204 29.7178 5.43349 29.7178 6.56453Z" fill="white"/>
<path d="M27.633 9.13712C26.2137 9.13712 25.0826 7.9839 25.0826 6.58672C25.0826 5.16736 26.2359 4.03632 27.633 4.03632C29.0524 4.03632 30.1834 5.18954 30.1834 6.58672C30.1834 7.9839 29.0302 9.13712 27.633 9.13712ZM27.633 4.96777C26.7459 4.96777 26.0363 5.67744 26.0363 6.56454C26.0363 7.45164 26.7459 8.16131 27.633 8.16131C28.5201 8.16131 29.2298 7.45164 29.2298 6.56454C29.2298 5.69962 28.5201 4.96777 27.633 4.96777Z" fill="#232347"/>
<path d="M29.7178 14.1048C29.7178 15.2581 28.7863 16.1895 27.6331 16.1895C26.4799 16.1895 25.5484 15.2581 25.5484 14.1048C25.5484 12.9516 26.4799 12.0202 27.6331 12.0202C28.7863 12.0202 29.7178 12.9516 29.7178 14.1048Z" fill="white"/>
<path d="M27.633 16.6552C26.2137 16.6552 25.0826 15.502 25.0826 14.1048C25.0826 12.6855 26.2359 11.5544 27.633 11.5544C29.0524 11.5544 30.1834 12.7077 30.1834 14.1048C30.1834 15.502 29.0302 16.6552 27.633 16.6552ZM27.633 12.4859C26.7459 12.4859 26.0363 13.1956 26.0363 14.0827C26.0363 14.9698 26.7459 15.6794 27.633 15.6794C28.5201 15.6794 29.2298 14.9698 29.2298 14.0827C29.2298 13.2177 28.5201 12.4859 27.633 12.4859Z" fill="#232347"/>
<path d="M31.381 12.4194C30.2278 12.4194 29.2963 11.4879 29.2963 10.3347C29.2963 9.18145 30.2278 8.25 31.381 8.25C32.5342 8.25 33.4657 9.18145 33.4657 10.3347C33.4657 11.4879 32.5342 12.4194 31.381 12.4194Z" fill="white"/>
<path d="M31.381 12.8851C29.9617 12.8851 28.8306 11.7319 28.8306 10.3347C28.8306 8.91532 29.9839 7.78427 31.381 7.78427C32.8004 7.78427 33.9314 8.9375 33.9314 10.3347C33.9536 11.754 32.8004 12.8851 31.381 12.8851ZM31.381 8.7379C30.4939 8.7379 29.7843 9.44758 29.7843 10.3347C29.7843 11.2218 30.4939 11.9314 31.381 11.9314C32.2681 11.9314 32.9778 11.2218 32.9778 10.3347C33 9.44758 32.2681 8.7379 31.381 8.7379Z" fill="#232347"/>
<path d="M23.8629 12.4194C22.7096 12.4194 21.7782 11.4879 21.7782 10.3347C21.7782 9.18145 22.7096 8.25 23.8629 8.25C25.0161 8.25 25.9476 9.18145 25.9476 10.3347C25.9476 11.4879 25.0161 12.4194 23.8629 12.4194Z" fill="white"/>
<path d="M23.8628 12.8851C22.4435 12.8851 21.3124 11.7319 21.3124 10.3347C21.3124 8.91532 22.4657 7.78427 23.8628 7.78427C25.2822 7.78427 26.4132 8.9375 26.4132 10.3347C26.4132 11.754 25.2822 12.8851 23.8628 12.8851ZM23.8628 8.7379C22.9757 8.7379 22.2661 9.44758 22.2661 10.3347C22.2661 11.2218 22.9757 11.9314 23.8628 11.9314C24.7499 11.9314 25.4596 11.2218 25.4596 10.3347C25.4596 9.44758 24.7499 8.7379 23.8628 8.7379Z" fill="#232347"/>
<path d="M30.1613 22H30.1169C26.502 21.9778 23.0423 17.9193 20.7581 15.2359C20.5585 15.0141 20.381 14.7923 20.2036 14.5927C19.627 13.9274 18.8286 13.5504 18.0081 13.5504C17.254 13.5504 16.5665 13.8609 16.1008 14.3931C15.9234 14.6149 15.7238 14.8367 15.502 15.1028C13.3286 17.6754 9.71371 21.9778 6.03226 22H5.9879C3.6371 22 2.17339 21.246 1.26411 19.5383C0.377016 17.875 0 15.2581 0 10.8004C0 2.06249 7.03024 0.842734 7.09677 0.820557H7.1633H29.0524C29.1189 0.842734 36.1492 2.06249 36.1492 10.8004C36.127 19.2943 34.6855 22 30.1613 22ZM17.9859 12.6189C19.0948 12.6189 20.1593 13.1068 20.9133 13.9939C21.0907 14.1935 21.2681 14.4153 21.4677 14.6593C23.5081 17.0544 26.9234 21.0685 30.0947 21.0685H30.1391C33.5988 21.0685 35.1512 19.5826 35.1512 10.8226C35.1512 3.19354 29.3851 1.88507 28.8972 1.79636H7.1633C6.60887 1.90725 0.909274 3.12701 0.909274 10.8226C0.909274 15.0363 1.26411 17.6089 2.0625 19.1169C2.79435 20.5141 3.9254 21.0685 5.92137 21.0685H5.96572C9.20363 21.0464 12.6633 16.9657 14.7258 14.504C14.9476 14.2601 15.1472 14.0161 15.3246 13.7943C15.9899 13.0403 16.9657 12.6189 17.9859 12.6189Z" fill="#232347"/>
<path d="M6.83069 13.506C6.83069 14.4375 7.58472 15.1915 8.51617 15.1915C9.44762 15.1915 10.2017 14.4375 10.2017 13.506V11.2217H6.83069V13.506Z" fill="#232347"/>
<path d="M10.1794 5.58871C10.1794 4.65726 9.42541 3.90323 8.49396 3.90323C7.5625 3.90323 6.80847 4.65726 6.80847 5.58871V7.87299H10.1794V5.58871Z" fill="#232347"/>
<path d="M4.54638 7.85077C3.61493 7.85077 2.8609 8.6048 2.8609 9.53625C2.8609 10.4677 3.61493 11.2217 4.54638 11.2217H6.83066V7.85077H4.54638Z" fill="#232347"/>
<path d="M12.4637 7.85077H10.1794V11.2217H12.4637C13.3952 11.2217 14.1492 10.4677 14.1492 9.53625C14.1492 8.6048 13.3952 7.85077 12.4637 7.85077Z" fill="#232347"/>
<path d="M19.5382 11.7097H16.3003C16.0342 11.7097 15.8124 11.4879 15.8124 11.2218C15.8124 10.9556 16.0342 10.7339 16.3003 10.7339H19.5161C19.7822 10.7339 20.004 10.9556 20.004 11.2218C20.004 11.4879 19.8044 11.7097 19.5382 11.7097Z" fill="#232347"/>
<path d="M20.3367 1.30847C20.3367 0.59879 19.76 0 19.0282 0H17.0987C16.3891 0 15.7903 0.576613 15.7903 1.30847H20.3367Z" fill="#232347"/>
</svg>

<svg viewBox="0 0 37 22" fill="none" xmlns="http://www.w3.org/2000/svg"><path d="M15.724 14.105c-2.04 2.373-5.9 7.407-9.714 7.43C1.863 21.555.466 19.25.466 10.822c0-8.428 6.675-9.515 6.675-9.515h21.823s6.697 1.065 6.697 9.515c0 8.45-1.397 10.733-5.544 10.711-3.704-.022-7.496-4.857-9.559-7.252-1.375-1.552-3.659-1.552-4.834-.177z" fill="#F0592C"/><path d="M18.74 12.685s2.284.067 4.724 2.507c2.417 2.417 6.254 5.034 8.605 2.883 1.907-1.73 1.241-16.279-3.15-16.279-4.39 0 3.15-2.417 5.744 4.103 2.595 6.52-.2 13.905-.71 14.216-.51.31-4.812 3.194-8.405-.577-3.57-3.792-6.808-6.853-6.808-6.853z" fill="#DB4C22"/><path d="M17.476 12.685s-2.284.067-4.724 2.506c-2.417 2.418-6.254 5.035-8.605 2.884-1.907-1.73-1.242-16.279 3.15-16.279 4.39 0-3.15-2.417-5.745 4.103-2.594 6.498.2 13.883.71 14.194.51.31 4.813 3.193 8.405-.577 3.57-3.77 6.809-6.83 6.809-6.83z" fill="#FF8763"/><path d="M29.718 6.565a2.082 2.082 0 01-2.085 2.084 2.082 2.082 0 01-2.085-2.084c0-1.154.932-2.085 2.085-2.085 1.153.022 2.085.953 2.085 2.085z" fill="#fff"/><path d="M27.633 9.137a2.55 2.55 0 112.55-2.55 2.565 2.565 0 01-2.55 2.55zm0-4.17a1.59 1.59 0 00-1.597 1.598c0 .887.71 1.596 1.597 1.596a1.59 1.59 0 001.597-1.596c0-.865-.71-1.597-1.597-1.597z" fill="#232347"/><path d="M29.718 14.105a2.082 2.082 0 01-2.085 2.084 2.082 2.082 0 01-2.085-2.084c0-1.153.932-2.085 2.085-2.085s2.085.932 2.085 2.085z" fill="#fff"/><path d="M27.633 16.655a2.55 2.55 0 112.55-2.55 2.565 2.565 0 01-2.55 2.55zm0-4.17a1.59 1.59 0 00-1.597 1.598c0 .887.71 1.596 1.597 1.596a1.59 1.59 0 001.597-1.596c0-.865-.71-1.597-1.597-1.597z" fill="#232347"/><path d="M31.381 12.42a2.082 2.082 0 01-2.085-2.085c0-1.154.932-2.085 2.085-2.085s2.085.931 2.085 2.085a2.082 2.082 0 01-2.085 2.084z" fill="#fff"/><path d="M31.381 12.885a2.55 2.55 0 112.55-2.55c.023 1.419-1.13 2.55-2.55 2.55zm0-4.147a1.59 1.59 0 00-1.597 1.597c0 .887.71 1.596 1.597 1.596a1.59 1.59 0 001.597-1.596c.022-.887-.71-1.597-1.597-1.597z" fill="#232347"/><path d="M23.863 12.42a2.082 2.082 0 01-2.085-2.085c0-1.154.932-2.085 2.085-2.085s2.085.931 2.085 2.085a2.082 2.082 0 01-2.085 2.084z" fill="#fff"/><path d="M23.863 12.885a2.55 2.55 0 112.55-2.55c0 1.419-1.13 2.55-2.55 2.55zm0-4.147a1.59 1.59 0 00-1.597 1.597c0 .887.71 1.596 1.597 1.596a1.59 1.59 0 001.597-1.596 1.59 1.59 0 00-1.597-1.597z" fill="#232347"/><path d="M30.161 22h-.044c-3.615-.022-7.075-4.08-9.359-6.764-.2-.222-.377-.444-.554-.643-.577-.666-1.375-1.043-2.196-1.043-.754 0-1.441.31-1.907.843-.178.222-.377.444-.599.71-2.173 2.572-5.788 6.875-9.47 6.897h-.044c-2.35 0-3.815-.754-4.724-2.462C.377 17.875 0 15.258 0 10.8 0 2.062 7.03.843 7.097.82h21.956c.066.023 7.096 1.242 7.096 9.98-.022 8.494-1.464 11.2-5.988 11.2zm-12.175-9.381c1.109 0 2.173.488 2.927 1.375.178.2.355.421.555.665 2.04 2.395 5.455 6.41 8.627 6.41h.044c3.46 0 5.012-1.486 5.012-10.246 0-7.63-5.766-8.938-6.254-9.027H7.163C6.61 1.907.91 3.127.91 10.823c0 4.213.355 6.786 1.153 8.294.732 1.397 1.863 1.951 3.86 1.951h.044c3.238-.022 6.697-4.102 8.76-6.564.222-.244.421-.488.599-.71.665-.754 1.64-1.175 2.66-1.175z" fill="#232347"/><path d="M6.83 13.506a1.685 1.685 0 103.372 0v-2.284H6.83v2.284zM10.18 5.589a1.685 1.685 0 10-3.372 0v2.284h3.371V5.589z" fill="#232347"/><path d="M4.546 7.85a1.685 1.685 0 100 3.372h2.285V7.85H4.546zM12.464 7.85h-2.285v3.372h2.285a1.685 1.685 0 100-3.371zM19.538 11.71H16.3a.492.492 0 01-.488-.488c0-.266.222-.488.488-.488h3.216c.266 0 .488.222.488.488s-.2.488-.466.488zM20.337 1.308A1.31 1.31 0 0019.028 0h-1.93a1.31 1.31 0 00-1.308 1.308h4.547z" fill="#232347"/></svg>
